X:1
T:Laissez, laissez cela
T:Clément Janequin
T:Source : Tiers livre contenant 21 chansons à 4, eslevées de plusieurs livres---Paris--- P.Attaignant---1536. Editor : André Vierendeels (19/03/18) Notes : Original clefs : C1, C3, C4, F3 Original note values have been halved Editorial accidentals above the staff 
T:#
T:Laissez, laissez cela
T:©
T:©
T:©
T:©
C:Clément Janequin
Z:©
%%score [ 1 [ 2 3 ] 4 ]
L:1/8
Q:1/4=120
M:2/2
K:C
V:1 treble nm="Soprano" snm="S"
V:2 treble-8 nm="Tenor 1" snm="T 1"
V:3 treble-8 nm="Tenor 2" snm="T 2"
V:4 bass nm="Bass" snm="B"
V:1
 z2 c2 G2 A2 | E4 z2 E2 | GFGA BA c2 | B2 A4 G2 | A2 c2 G2 A2 | E4 z2 E2 | GFGA BA c2 | B2 A4 G2 | %8
w: Lais- sez ce-|la ne|men _ _ _ _ _ _|par- lez ia-|mais, vous per- dez|temps, ce-|la _ _ _ _ _ _|le vous pro-|
 A4 z2 A2 | G4 F4 | E4 z2 E2 | GFGA B2 c2- | c2 B4 A2 | B4 z2 G2 | A2 B2 G2 c2 | B2 A4 G2- | %16
w: metz, car|de ma|part à|vous _ _ _ _ ie|_ nen- ten-|dray, à|mon a- my, ma|pa- rol- le|
 G2 F2 G4 | z2 G2 A2 B2 | G2 c2 B2 A2- | A2 G4 F2 | G4 z4 | z2 c2 G2 A2 | E4 z2 E2 | GFGA B2 c2 | %24
w: _ tien- dray,|à mon a-|my, ma pa- rol-|* le tien-|dray,|sans le ser-|vir de|di- * * * * vers|
 B2 A4 G2 | A2 c2 G2 A2 | E4 z2 E2 | GFGA B2 c2 | B2 A4 G2 | A8 |] %30
w: en- * tre|metz, sans le ser-|vir de|di- * * * * vers|en- * tre-|metz.|
V:2
 z2 e2 e2 c2 | G2 A2 E2 c2 | c2 z2 g2 cd | edff e2 e2 | e2 e2 e2 c2 | g4 z2 e2 | e3 d/c/ B2 A2 | %7
w: Lais- sez, lais-|sez ce- la, lais-|sez, lais- sez ce-|la, ne men par- lez ia-|mais, vous per- dez|temps, ce-|la _ _ _ je|
 d2 d2 e4 | z2 f2 e2 d2 | e4 z4 | B4 c2 c2 | B2 e4 e2 | f2 g2 e4 | e2 e2 c2 e2 | d4 z2 c2 | %15
w: vous pro- metz,|car de ma|part,|car de ma|part à vous|ie nen- ten-|dray, à mon a-|my, à|
 d2 f2 e2 e2 | d2 c2 d2 d2 | e4 z2 d2 | e2 f2 d3 d | e2 c2 d2 d2 | e4 z2 c2 | G2 A2 E2 A2 | %22
w: mon a- my ma|pa- rol- le tien-|dray, à|mon a- my ma|pa- rol- le tien-|dray, sans|le ser- vir de|
 c3 c B2 A2 | e8 | z8 | f2 c2 e2 A2 | z2 g2 c2 e2 | B2 g2 g2 g2 | f4 e4 |"^#" e8 |] %30
w: di- vers en- tre-|metz,||sans le ser- vir,|sans le ser-|vir de di- vers|en- tre|metz.|
V:3
 z2 c2 c4 | z2 c2 G2 A2 | E2 e2 e3 A | BBcd B2 B2 | A3 c B2 A2 | c3 e dBcc | B2 e2 d2 c2 | %7
w: Lais- sez,|lais- sez ce-|la, lais- sez ce-|la, ne men par- lez ia-|mais, vous per- dez|temps, ce- la, ie vous pro-|metz, ce- la, ie|
 dcBA B2 B2 | A4 z4 | z2 E2 A2 A2 | G4 z4 | z2 B2 B2 A2 | d4 c4 | B2 G2 A2 c2- | c2 B4 A2 | %15
w: vous _ _ _ _ pro-|metz,|car de ma|part|à vous ie|nen- ten-|dray, à mon a-|* my, ma|
 B2 c4 B2- | BA c4 B2 | c3 c c2 B2 | c3 A B2 d2 | cBAG A2 A2 | c3 c G2 A2 | E2 A2 c3 B | %22
w: pa- rol- le|_ _ tien- *|dray, à mon a-|my, ma pa- rol-|le _ _ _ _ tien-|dray, sans le ser-|vir de di- vers|
 A3 B/c/ d2 c2 | B3 c G2 A2 | E2 c2 c2 B2 | AG AB c2 c2- | c2 B2 A4 | G2 c2 B2 e2 | d3 A c2 B2 | %29
w: en- * * * tre-|metz, sans le se-|vir de di- vers|en- * tre- * metz, sans|_ le ser-|vir de di- vers|en _ _ tre-|
 A8 |] %30
w: metz.|
V:4
 z2 C,2 C,4- | C,2 C,2 C,4- | C,2 C2 G,2 A,2 | E,G,F,D, E,2 E,2 | A,,2 A,2 E,2 F,2 | %5
w: Lais- sez,|_ lais- sez,|_ lais- sez ce-|la ne men par- lez ia-|pais, vous per- dez|
 C,2 C2 G,2 A,2 | E,3 F, G,2 A,2 | G,2 F,2 E,4 | z2 A,2 G,2 F,2 | E,2 C,2 D,2 D,2 | %10
w: temps, vous per- dez|temps ce- la ie|vous pro- metz,|car de ma|part, car de ma|
 E,3 E, A,2 A,2 | E,3 F, G,2 A,2- | A,2 G,2 A,4 | E,4 z2 E,2 | F,2 G,2 E,2 A,2 | G,2 F,2 C,D,E,F, | %16
w: part à vous ie|nen- ten- * *||dray, à|mon a- my, ma|pa- rol- le _ _ _|
 G,2 A,2 G,4 | C,2 E,2 F,2 G,2 | E,2 A,2 G,2 F,2 | E,4 D,4 | C,8- | C,8 | z2 C2 G,2 A,2 | E,6 C2 | %24
w: _ tien- *|dray, à mon a-|my, ma pa- rol-|le tien-|dray,|_|sans le ser-|vir, sans|
 G,2 A,2 E,2 E,2 | F,F,F,F, E,2 F,2 | C,2 E,2 A,,B,,C,D, | E,2 E,2 E,2 C,2 | D,4 E,4 | A,,8 |] %30
w: le ser- vir de|di- vers en- tre metz, sans|le se- vir _ _ _|_ de di- vers|en- tre-|metz.|

